X:1
T:Sans lever le pied
T:Jean de Castro
T:Source : La fleur des chansons à 3---Louvain---P.Phalèse---1574. Editor : André Vierendeels (10/09/18) Notes : Original clefs : G2, C2, C3 Original note values have been halved Editorial accidentals above the staff m13 in Tenor voice : "E" notated as "F" in original print
T:Sans lever le pied
T:©
T:©
T:©
T:©
T:©
C:Jean de Castro
Z:©
%%score [ 1 2 3 ]
L:1/8
Q:1/4=96
M:2/2
K:F
V:1 treble nm="Soprano" snm="S"
V:2 treble nm="Alto" snm="A"
V:3 treble-8 nm="Tenor" snm="T"
V:1
 FGAF c2 fe | dB A2 z2 fe | dcBA Gc A2- | AA G2 A2 FG | AB c2 z4 | f3 e dcBA | GC c3 c =B2 | %7
w: Sans le- ver le pied, sans le-|ver le pied, sans le-|ver le pied, i'ab- ba- tray la|_ rou- sé- e, sans le-|ver le pied,|sans le- ver- le pied i'ab-|ba- tray la rou- sé-|
 c2 z c c2 c2 | df e2 f2 z c | ccAd c3 F | z8 | c2 Ac F2 z f- | fe f2 c2 z c- | cA c2 F c2 f | %14
w: e, i'ab- ba- tray|la rou- sé- e, en|un iar- din seu- let- te||as- sez loin temps, as-|* sez loin temps, as-|* sez loin temps seu- let-|
 ef d/c/B/A/ Bc z2 | z2 e2 f2 e2 | c c2 d BA G2 | Acde fdcB | c4 z ffe | dc d2 c4 | FGAF c2 fe | %21
w: te é- ga- * * * ré- e,,|mon a- my|vint qu'au- si ma trou- vé-|e, deux ou trois fois, deux ou trois|fois sur l'her- be|m'a iet- té- e,|sans le- ver le pied, sans le-|
 dB A2 z2 fe | dcBA Gc A2- | AA G2 A2 FG | AB c2 z4 | f3 e dcBA | GC c3 c B2 | c8 | z2 B3 A G2 | %29
w: ver le pied, sans le-|ver le pied, i'ab- ba- tra la|_ rou- sé- e, sans le-|ver le pied,|sans le- ver le pied, i'ab-|ba- tray la rou- sé-|e,|la rou- sé-|
 A8 |] %30
w: e.|
V:2
 z4 FEDC | B,2 F2 B,CDE | F2 GC EG F2- | FF E2 F2 DE | FD C2 cBAG | FEDC B,3 B, | C4 G,4 | %7
w: Sans le- ver le|pied, i'ab- ba- tray la rou-|sé- e, i'ab- ba- tray la|_ rou- sé- e, sans le-|ver le pied, sans le- ver le|pied, i'ab- ba- tray la rou-|sé- e,|
 z2 F2 A3 G | AB G2 AAAA | FC D2 A4 | z4 G2 EG | C c2 A c2 FA | G2 A2 z G A2 | A c2 A c2 F2 | z8 | %15
w: i'ab- ba- tray|la rou- sé- e, en un iar-|din seu- let- te|as- sez loin|temps, as- sez loin temps, seu-|let- te, seu- let-|te, as- sez loin temps,||
 G3 A2 F G2 | A3 B GF E2 | F2 z2 z DFG | A2 z A GABG | B A3/2G/4F/4G A2 CC | DE F2 FEDC | %21
w: mon a- my vint|qu'au- si m'a trou- vé-|e, deux ou trois|fois sur l'her- be m'a iet-|té- * * * * e, sans le-|ver le pied, sans le- ver le|
 B,2 F2 B,CDE | F2 GC EG F2- | FF E2 F2 DE | FD C2 cBAG | FEDC B,3 B, | C4 G,4 | z2 F2 A3 G | %28
w: pied, i'ab- ba- tray la rosé-|e, i'ab- ba- tray la rou-|* sé- * e, sans le-|ver le pied, sans le- ver le|pied, i'ab- ba- tray la rou-|sé- e,|i'ab- ba- tray|
 F2 G3 F3/2E/4D/4E | F8 |] %30
w: le rou- sé- * * *|e.|
V:3
 z8 | z4 fedc | BAGF c2 d2 | c4 F2 z2 | FGAF c2 fe | dcBc d2 f2 | e3 e d4 | c2 F2 f3 e | dB c2 F4 | %9
w: |Sans le- ver le|pied, i'ab- ba- tray la rou-|sé- e,|sans le- ver le pied, sans le-|ver le pied, i'ab- ba- tray|la rou- sé-|e, i'ab- ba- tray|la rou- sé- e,|
 z4 f2 fd | ef g2 c2 z2 | z cAc F2 z f | de c2 z f2 e | f2 F4 z2 | z8 | c4 d2 c2 | f F2 B BF c2 | %17
w: seu- let- te|suis al- lé- e,|as- sez loin temps, as-|sez loin temps, as- sez|loin temps,||mon a- my|vint qu'au- si m'a trou- vé-|
 Ffdc B2 z2 | z FAF cFBc | GA B2 A4 | z8 | z4 fedc | BAGF c2 d2 | c4 F2 z2 | FGAF c2 fe | %25
w: e, deux ou trois fois,|deux ou trois fois sur l'her- be|m'a iet- té- e,||sans le- ver le|pied, i'ab- ba- tray la rou-|sé- e,|sans le- ver le pied, sans le-|
 dcBc d2 f2 | e3 e d4 | c2 F2 f3 e | d2 B2 c4 | F8 |] %30
w: ver le pied, i'ab- ba- tray|la rou- sé-|e, i'ab- ba- tray|la rou- sé-|e.|

